**kern
*staff1
!!pagebreak:original
*I"P1
=1-
*clefG2
*k[f#]
*M2/4
8b\L
8cc\
8b\
8ff#\J
=2
8gg\L
8ee\
8dd\
8cc\J
=3
8b\L
8cc\
8b\
8ff#\J
=4
8gg\L
8ee\
8dd\
8cc\J
=5
8b\L
8cc\
8b\
8ffn\J
=6
8ee\L
8cc\
8b\
8a\J
=7
8a/L
8b/
8g/
8a/J
=8
8b\
=
*-
